public/images/icons/16x16/time_16_inklight.svg

<svg xmlns="http://www.w3.org/2000/svg" width="15" height="16" viewBox="0 0 15 16">
  <g fill="#59598D" transform="translate(2 2)">
    <path d="M0.130946292,6.20358056 C0.130946292,8.98618926 2.38976982,11.2286445 5.15601023,11.2286445 C7.92225064,11.2286445 10.1810742,8.96982097 10.1810742,6.20358056 C10.1810742,4.8286445 9.62455243,3.56828645 8.70792839,2.6516624 L9.10076726,2.25882353 L9.28081841,2.43887468 C9.36265985,2.52071611 9.46086957,2.55345269 9.55907928,2.55345269 C9.657289,2.55345269 9.75549872,2.52071611 9.83734015,2.43887468 C9.98465473,2.2915601 9.98465473,2.02966752 9.83734015,1.88235294 L8.92071611,0.9657289 C8.77340153,0.818414322 8.51150895,0.818414322 8.36419437,0.9657289 C8.2168798,1.11304348 8.2168798,1.37493606 8.36419437,1.52225064 L8.54424552,1.70230179 L8.10230179,2.14424552 C7.3657289,1.60409207 6.48184143,1.26035806 5.53248082,1.19488491 L5.53248082,0.851150895 L6.4,0.851150895 C6.61278772,0.851150895 6.79283887,0.671099744 6.79283887,0.45831202 C6.79283887,0.245524297 6.61278772,0.0654731458 6.4,0.0654731458 L3.83017903,0.0654731458 C3.6173913,0.0654731458 3.43734015,0.245524297 3.43734015,0.45831202 C3.43734015,0.671099744 3.6173913,0.851150895 3.83017903,0.851150895 L4.76317136,0.851150895 L4.76317136,1.19488491 C2.1769821,1.39130435 0.130946292,3.55191816 0.130946292,6.20358056 Z M5.15601023,10.4429668 C2.81534527,10.4429668 0.916624041,8.54424552 0.916624041,6.20358056 C0.916624041,3.8629156 2.81534527,1.96419437 5.15601023,1.96419437 C7.49667519,1.96419437 9.39539642,3.8629156 9.39539642,6.20358056 C9.39539642,8.54424552 7.49667519,10.4429668 5.15601023,10.4429668 Z"/>
    <path d="M6.84194373,5.74526854 L5.5488491,5.74526854 L5.5488491,3.69923274 C5.5488491,3.48644501 5.36879795,3.30639386 5.15601023,3.30639386 C4.94322251,3.30639386 4.76317136,3.48644501 4.76317136,3.69923274 L4.76317136,6.13810742 C4.76317136,6.35089514 4.94322251,6.53094629 5.15601023,6.53094629 L6.84194373,6.53094629 C7.05473146,6.53094629 7.23478261,6.35089514 7.23478261,6.13810742 C7.23478261,5.92531969 7.05473146,5.74526854 6.84194373,5.74526854 Z"/>
  </g>
</svg>

<svg height="16" viewBox="0 0 15 16" width="15" xmlns="http://www.w3.org/2000/svg"><g fill="#59598d" transform="translate(2 2)"><path d="m.13094629 6.20358056c0 2.7826087 2.25882353 5.02506394 5.02506394 5.02506394s5.02506397-2.25882353 5.02506397-5.02506394c0-1.37493606-.55652177-2.63529411-1.47314581-3.55191816l.39283887-.39283887.18005115.18005115c.08184144.08184143.18005116.11457801.27826087.11457801.09820972 0 .19641944-.03273658.27826087-.11457801.14731458-.14731458.14731458-.40920716 0-.55652174l-.91662404-.91662404c-.14731458-.14731458-.40920716-.14731458-.55652174 0-.14731457.14731458-.14731457.40920716 0 .55652174l.18005115.18005115-.44194373.44194373c-.73657289-.54015345-1.62046036-.88388746-2.56982097-.94936061v-.34373401h.86751918c.21278772 0 .39283887-.18005116.39283887-.39283888s-.18005115-.39283887-.39283887-.39283887h-2.56982097c-.21278773 0-.39283888.18005115-.39283888.39283887s.18005115.39283888.39283888.39283888h.93299233v.34373401c-2.58618926.19641944-4.63222507 2.35703325-4.63222507 5.00869565zm5.02506394 4.23938624c-2.34066496 0-4.23938619-1.89872128-4.23938619-4.23938624s1.89872123-4.23938619 4.23938619-4.23938619 4.23938619 1.89872123 4.23938619 4.23938619-1.89872123 4.23938624-4.23938619 4.23938624z"/><path d="m6.84194373 5.74526854h-1.29309463v-2.0460358c0-.21278773-.18005115-.39283888-.39283887-.39283888s-.39283887.18005115-.39283887.39283888v2.43887468c0 .21278772.18005115.39283887.39283887.39283887h1.6859335c.21278773 0 .39283888-.18005115.39283888-.39283887 0-.21278773-.18005115-.39283888-.39283888-.39283888z"/></g></svg>
